icons/honor-of-kings-fill.svg

<svg xmlns="http://www.w3.org/2000/svg" width="24" height="24" fill="none"><g clip-path="url(#a)"><g><path fill="#121212" d="M21.158 4.25795C21.192 7.75795 21.749 9.06895 21.946 10.959C22.247 13.853 21.289 16.8529 19.071 19.0709C15.405 22.7369 9.59997 22.9609 5.67097 19.7439L8.52297 16.891C10.867 18.561 14.14 18.3449 16.243 16.243C18.345 14.14 18.561 10.8659 16.891 8.52295L21.158 4.25795ZM18.328 4.25595L15.477 7.10895C13.133 5.43895 9.85997 5.65495 7.75697 7.75695C5.65497 9.85995 5.43897 13.133 7.10897 15.477L2.84197 19.742C2.80797 16.242 2.25097 14.931 2.05397 13.041C1.75297 10.147 2.71097 7.14695 4.92897 4.92895C8.59497 1.26295 14.4 1.03895 18.329 4.25595H18.328ZM12 7.99995C14.21 7.99995 16 9.78995 16 12C16 14.21 14.21 16 12 16C9.78997 16 7.99997 14.21 7.99997 12C7.99997 9.78995 9.78997 7.99995 12 7.99995ZM12 10.5C11.172 10.5 10.5 11.172 10.5 12C10.5 12.828 11.172 13.5 12 13.5C12.828 13.5 13.5 12.828 13.5 12C13.5 11.172 12.828 10.5 12 10.5Z"/></g></g><defs><clipPath id="a"><rect width="24" height="24" fill="white"/></clipPath></defs></svg>

<svg width="24" height="24" fill="none" xmlns="http://www.w3.org/2000/svg"><g clip-path="url(#a)"><path d="M21.158 4.258c.034 3.5.591 4.81.788 6.701a9.98 9.98 0 0 1-2.875 8.112c-3.666 3.666-9.471 3.89-13.4.673l2.852-2.853a6.003 6.003 0 0 0 7.72-.648 6.003 6.003 0 0 0 .648-7.72l4.267-4.265Zm-2.83-.002-2.851 2.853a6.002 6.002 0 0 0-8.368 8.368l-4.267 4.265c-.034-3.5-.591-4.811-.788-6.701a9.98 9.98 0 0 1 2.875-8.112c3.666-3.666 9.471-3.89 13.4-.673h-.001ZM12 8c2.21 0 4 1.79 4 4s-1.79 4-4 4-4-1.79-4-4 1.79-4 4-4Zm0 2.5a1.5 1.5 0 1 0 .001 3.001A1.5 1.5 0 0 0 12 10.5Z" /></g><defs><clipPath id="a"><path fill="#fff" d="M0 0h24v24H0z"/></clipPath></defs></svg>
